svg/fluentui-system-icons/ic_fluent_book_open_28_filled.svg

<svg width="28" height="28" viewBox="0 0 28 28" fill="none" xmlns="http://www.w3.org/2000/svg">
<path d="M11.5 4C12.4793 4 13.3647 4.40223 14 5.05051C14.6353 4.40223 15.5207 4 16.5 4H24C25.1046 4 26 4.89543 26 6V22C26 23.1046 25.1046 24 24 24H16.5C15.5207 24 14.6353 23.5978 14 22.9495C13.3647 23.5978 12.4793 24 11.5 24H4C2.89543 24 2 23.1046 2 22V6C2 4.89543 2.89543 4 4 4H11.5ZM13 20.5V7.5C13 6.67157 12.3284 6 11.5 6H4V22H11.5C12.3284 22 13 21.3284 13 20.5ZM15 7.5V20.5C15 21.3284 15.6716 22 16.5 22H24V6H16.5C15.6716 6 15 6.67157 15 7.5Z" fill="#212121"/>
</svg>

<svg xmlns="http://www.w3.org/2000/svg" width="28" height="28"><path d="M11.5 4c.98 0 1.865.402 2.5 1.05A3.49 3.49 0 0 1 16.5 4H24a2 2 0 0 1 2 2v16a2 2 0 0 1-2 2h-7.5a3.49 3.49 0 0 1-2.5-1.05A3.49 3.49 0 0 1 11.5 24H4a2 2 0 0 1-2-2V6a2 2 0 0 1 2-2h7.5ZM13 20.5v-13A1.5 1.5 0 0 0 11.5 6H4v16h7.5a1.5 1.5 0 0 0 1.5-1.5Zm2-13v13a1.5 1.5 0 0 0 1.5 1.5H24V6h-7.5A1.5 1.5 0 0 0 15 7.5Z"/></svg>
